svg/emoji_u1f48a.svg

<?xml version="1.0" encoding="UTF-8"?>
<svg width="128" height="128" enable-background="new 0 0 128 128" xmlns="http://www.w3.org/2000/svg"><radialGradient id="b" cx="68" cy="64.667" r="68.55" gradientTransform="matrix(.6516 .7586 -.5017 .4309 56.134 -14.783)" gradientUnits="userSpaceOnUse"><stop stop-color="#EF5350" offset="0"/><stop stop-color="#D83534" offset=".6263"/><stop stop-color="#D32F2F" offset=".7356"/><stop stop-color="#D32F2F" offset="1"/></radialGradient><path d="m74.06 115.46c11.38 11.38 30.01 11.38 41.4 0 11.38-11.38 11.38-30.01 0-41.4l-30.76-30.76-41.4 41.4 30.76 30.76z" fill="url(#b)"/><radialGradient id="a" cx="16.667" cy="15.667" r="66.946" gradientTransform="matrix(.7071 .7071 -.5565 .5565 13.599 -4.8363)" gradientUnits="userSpaceOnUse"><stop stop-color="#FFEB3B" offset="0"/><stop stop-color="#FEE439" offset=".349"/><stop stop-color="#FDD835" offset=".6698"/><stop stop-color="#FBC02D" offset=".9954"/></radialGradient><path d="m84.7 43.3-30.76-30.76c-11.38-11.38-30.01-11.38-41.4 0-11.38 11.38-11.38 30.01 0 41.4l30.76 30.76 41.4-41.4z" fill="url(#a)"/><g opacity=".2"><path d="m33.24 7c7.04 0 13.64 2.72 18.58 7.66l61.52 61.52c4.94 4.94 7.66 11.54 7.66 18.58s-2.72 13.64-7.66 18.58-11.54 7.66-18.58 7.66-13.64-2.72-18.58-7.66l-61.52-61.52c-4.94-4.94-7.66-11.54-7.66-18.58s2.72-13.64 7.66-18.58 11.54-7.66 18.58-7.66m0-3c-7.5 0-15.01 2.85-20.7 8.54-11.38 11.38-11.38 30.01 0 41.4l61.52 61.52c5.69 5.69 13.2 8.54 20.7 8.54s15.01-2.85 20.7-8.54c11.38-11.38 11.38-30.01 0-41.4l-61.52-61.52c-5.69-5.69-13.2-8.54-20.7-8.54z" fill="#424242"/></g><rect transform="matrix(-.7071 .7071 -.7071 -.7071 157.07 65.061)" x="35.79" y="63.56" width="58.55" height="3" fill="#424242" opacity=".2"/></svg>

<svg width="128" height="128" style="enable-background:new 0 0 128 128;" xmlns="http://www.w3.org/2000/svg" xmlns:xlink="http://www.w3.org/1999/xlink">
  <g>
    <g>
      <radialGradient id="SVGID_1_" cx="68" cy="64.6667" gradientTransform="matrix(0.6516 0.7586 -0.5017 0.4309 56.1339 -14.7831)" gradientUnits="userSpaceOnUse" r="68.5501">
        <stop offset="0" style="stop-color:#EF5350"/>
        <stop offset="0.6263" style="stop-color:#D83534"/>
        <stop offset="0.7356" style="stop-color:#D32F2F"/>
        <stop offset="1" style="stop-color:#D32F2F"/>
      </radialGradient>
      <path d="M74.06,115.46c11.38,11.38,30.01,11.38,41.4,0l0,0c11.38-11.38,11.38-30.01,0-41.4 L84.7,43.3L43.3,84.7L74.06,115.46z" style="fill:url(#SVGID_1_);"/>
      <radialGradient id="SVGID_2_" cx="16.6667" cy="15.6667" gradientTransform="matrix(0.7071 0.7071 -0.5565 0.5565 13.5994 -4.8363)" gradientUnits="userSpaceOnUse" r="66.9461">
        <stop offset="0" style="stop-color:#FFEB3B"/>
        <stop offset="0.349" style="stop-color:#FEE439"/>
        <stop offset="0.6698" style="stop-color:#FDD835"/>
        <stop offset="0.9954" style="stop-color:#FBC02D"/>
      </radialGradient>
      <path d="M84.7,43.3L53.94,12.54c-11.38-11.38-30.01-11.38-41.4,0l0,0 c-11.38,11.38-11.38,30.01,0,41.4L43.3,84.7L84.7,43.3z" style="fill:url(#SVGID_2_);"/>
    </g>
    <g style="opacity:0.2;">
      <path d="M33.24,7c7.04,0,13.64,2.72,18.58,7.66l30.76,30.76l30.76,30.76c4.94,4.94,7.66,11.54,7.66,18.58 c0,7.04-2.72,13.64-7.66,18.58c-4.94,4.94-11.54,7.66-18.58,7.66s-13.64-2.72-18.58-7.66L45.42,82.58L14.66,51.82 C9.72,46.88,7,40.28,7,33.24s2.72-13.64,7.66-18.58C19.6,9.72,26.2,7,33.24,7 M33.24,4c-7.5,0-15.01,2.85-20.7,8.54l0,0 c-11.38,11.38-11.38,30.01,0,41.4L43.3,84.7l30.76,30.76c5.69,5.69,13.2,8.54,20.7,8.54c7.5,0,15.01-2.85,20.7-8.54l0,0 c11.38-11.38,11.38-30.01,0-41.4L84.7,43.3L53.94,12.54C48.25,6.85,40.74,4,33.24,4L33.24,4z" style="fill:#424242;"/>
    </g>
    <rect height="3" style="opacity:0.2;fill:#424242;" transform="matrix(-0.7071 0.7071 -0.7071 -0.7071 157.0703 65.0607)" width="58.55" x="35.79" y="63.56"/>
  </g>
</svg>
